svg/u1f38c.svg

<svg viewBox="0 0 128 128" xmlns="http://www.w3.org/2000/svg">
  <path d="M49.65,13.04c-0.37-1.01-1.99-2.13-3.74-0.98c-1.36,0.9-1.28,2.51-0.95,3.57s34.82,99.92,35.06,100.4 c0.24,0.48,1.62,1.5,3.06,0.96s2.22-1.98,2.04-2.7C84.95,113.57,50.13,14.35,49.65,13.04z" fill="#AEB0B0"/>
  <path d="M81.66,115.48c-0.41,0-0.8-0.26-0.94-0.67L45.67,14.44c-0.18-0.52,0.09-1.09,0.61-1.27 c0.52-0.18,1.09,0.09,1.27,0.61l35.05,100.37c0.18,0.52-0.09,1.09-0.61,1.27C81.88,115.46,81.77,115.48,81.66,115.48z" fill="#C8C8C8"/>
  <path d="M81.55,15.23c0.4-0.98,0.5-2.69-1.57-3.49c-2.07-0.8-3.19,0.26-3.46,1 c-0.27,0.73-34.75,99.52-35.12,100.58c-0.37,1.06,0.1,3.07,1.71,3.53c1.61,0.46,3.14-0.24,3.38-0.84 C47.03,114.64,81.27,15.91,81.55,15.23z" fill="#AEB0B0"/>
  <path d="M43.66,114.44c-0.11,0-0.22-0.02-0.33-0.06c-0.52-0.18-0.8-0.75-0.61-1.27l34.81-99.57 c0.18-0.52,0.75-0.8,1.27-0.61s0.8,0.75,0.61,1.27l-34.81,99.57C44.46,114.19,44.08,114.44,43.66,114.44z" fill="#C8C8C8"/>
  <path d="M68.54,52.52c0,0,6.77-0.32,14.14,5.74c6.25,5.14,12.13,10.38,16.84,12.09 c4.71,1.7,8.3,1.82,9.05,1.27c0.75-0.55,1-2.72,0.85-3.02S82.63,46.55,82.63,46.55l-12.99,2.91L68.54,52.52z" fill="#9A9A9A"/>
  <path d="M58.01,53.04c0,0-7.63-0.48-14.14,2.18c-7.83,3.19-11.08,8.12-17.05,11.68 c-5.22,3.12-10.05,3.64-10.98,3.41c-0.6-0.15-1.14-1.04-1.25-1.61c-0.31-1.52,24.52-19.3,24.52-19.3l17.57-0.19L58.01,53.04z" fill="#9A9A9A"/>
  <path d="M69.49,49.81l12.23-35.1c0,0,7.82-1.7,17.45,4.81c6.86,4.64,8.72,8.12,13.64,10.78 c5.4,2.92,10.98,2.96,11.68,3.96c0.55,0.78-3.06,6.72-6.87,15.59c-3.71,8.65-8.37,20.51-8.37,20.51s-4.85-0.07-9.33-2.26 c-9.53-4.66-14.24-11.83-21.06-15.44C72.87,49.5,69.49,49.81,69.49,49.81z" fill="#DADADA"/>
  <path d="M57.1,50.4L44.91,15.4c0,0-5.5-2.14-13.48,0.72s-11.28,7.47-17,10.08S3.4,29.55,3.3,30.45 c-0.1,0.9,1.02,3.86,2.47,8.07s3.9,14.98,5.05,19.56c1.51,6.01,3.76,10.63,3.76,10.63s5.52-0.2,10.13-3.11s11.07-9.87,17.2-12.34 C49.88,50.06,57.1,50.4,57.1,50.4z" fill="#DADADA"/>
  <path d="M7.47,32.17c-0.16,0.33,3.8,11.84,4.78,16.64c1.99,9.72,4.59,16.57,4.59,16.57s4.84-0.89,8.39-3.59 c4.27-3.24,10.39-8.74,16.05-11.25c6.91-3.05,12.79-3.1,12.79-3.1L43.62,17.53c0,0-5.96-1.69-12.29,1.62s-9.64,6.62-14.43,8.98 C11.58,30.74,7.62,31.88,7.47,32.17z" fill="#FEFEFE"/>
  <path d="M82.92,17.82c-0.15,0.29-10.45,29.3-10.38,29.66c0.07,0.37,6.48,0.81,12.22,5.59 c5.68,4.73,10.67,9.94,14.72,11.85c4.05,1.91,7.21,2.13,7.21,2.13s4.61-9.75,6.77-15.31c2.58-6.62,6.92-15.24,6.99-15.6 c0.07-0.37-6.84-1.45-11.04-4.56c-4.56-3.39-6.04-6.85-14.13-11.11C86.84,16.02,82.92,17.82,82.92,17.82z" fill="#FEFEFE"/>
  <path d="M101.91,31.22c-5.46-3.51-13.25-2.06-15.6,4.27s0.15,12.29,5.89,15.53 c5.74,3.24,14.47,0.65,15.46-7.14C108.32,38.65,106.84,34.38,101.91,31.22z" fill="#DB0D27"/>
  <path d="M25.88,29.01c-8.17,3.68-7.02,12.19-5.37,15.68c1.91,4.05,6.74,7.77,15.02,4.56 c8.54-3.31,8.07-11.25,6.11-15.16C39.27,29.38,33.98,25.36,25.88,29.01z" fill="#DB0D27"/>
</svg>

<svg viewBox="0 0 128 128" xmlns="http://www.w3.org/2000/svg">
  <defs/>
  <path d="M49.65,13.04 C49.28,12.03 47.66,10.91 45.91,12.06 C44.55,12.96 44.63,14.57 44.96,15.63 C45.29,16.69 79.78,115.55 80.02,116.03 C80.26,116.51 81.64,117.53 83.08,116.99 C84.52,116.45 85.3,115.01 85.12,114.29 C84.95,113.57 50.13,14.35 49.65,13.04 Z" fill="#AEB0B0"/>
  <path d="M81.66,115.48 C81.25,115.48 80.86,115.22 80.72,114.81 L45.67,14.44 C45.49,13.92 45.76,13.35 46.28,13.17 C46.8,12.99 47.37,13.26 47.55,13.78 L82.6,114.15 C82.78,114.67 82.51,115.24 81.99,115.42 C81.88,115.46 81.77,115.48 81.66,115.48 Z" fill="#C8C8C8"/>
  <path d="M81.55,15.23 C81.95,14.25 82.05,12.54 79.98,11.74 C77.91,10.94 76.79,12 76.52,12.74 C76.25,13.47 41.77,112.26 41.4,113.32 C41.03,114.38 41.5,116.39 43.11,116.85 C44.72,117.31 46.25,116.61 46.49,116.01 C47.03,114.64 81.27,15.91 81.55,15.23 Z" fill="#AEB0B0"/>
  <path d="M43.66,114.44 C43.55,114.44 43.44,114.42 43.33,114.38 C42.81,114.2 42.53,113.63 42.72,113.11 L77.53,13.54 C77.71,13.02 78.28,12.74 78.8,12.93 C79.32,13.12 79.6,13.68 79.41,14.2 L44.6,113.77 C44.46,114.19 44.08,114.44 43.66,114.44 Z" fill="#C8C8C8"/>
  <path d="M68.54,52.52 C68.54,52.52 75.31,52.2 82.68,58.26 C88.93,63.4 94.81,68.64 99.52,70.35 C104.23,72.05 107.82,72.17 108.57,71.62 C109.32,71.07 109.57,68.9 109.42,68.6 C109.27,68.3 82.63,46.55 82.63,46.55 L69.64,49.46 L68.54,52.52 Z" fill="#9A9A9A"/>
  <path d="M58.01,53.04 C58.01,53.04 50.38,52.56 43.87,55.22 C36.04,58.41 32.79,63.34 26.82,66.9 C21.6,70.02 16.77,70.54 15.84,70.31 C15.24,70.16 14.7,69.27 14.59,68.7 C14.28,67.18 39.11,49.4 39.11,49.4 L56.68,49.21 L58.01,53.04 Z" fill="#9A9A9A"/>
  <path d="M69.49,49.81 L81.72,14.71 C81.72,14.71 89.54,13.01 99.17,19.52 C106.03,24.16 107.89,27.64 112.81,30.3 C118.21,33.22 123.79,33.26 124.49,34.26 C125.04,35.04 121.43,40.98 117.62,49.85 C113.91,58.5 109.25,70.36 109.25,70.36 C109.25,70.36 104.4,70.29 99.92,68.1 C90.39,63.44 85.68,56.27 78.86,52.66 C72.87,49.5 69.49,49.81 69.49,49.81 Z" fill="#DADADA"/>
  <path d="M57.1,50.4 L44.91,15.4 C44.91,15.4 39.41,13.26 31.43,16.12 C23.45,18.98 20.15,23.59 14.43,26.2 C8.71,28.81 3.4,29.55 3.3,30.45 C3.2,31.35 4.32,34.31 5.77,38.52 C7.22,42.73 9.67,53.5 10.82,58.08 C12.33,64.09 14.58,68.71 14.58,68.71 C14.58,68.71 20.1,68.51 24.71,65.6 C29.32,62.69 35.78,55.73 41.91,53.26 C49.88,50.06 57.1,50.4 57.1,50.4 Z" fill="#DADADA"/>
  <path d="M7.47,32.17 C7.31,32.5 11.27,44.01 12.25,48.81 C14.24,58.53 16.84,65.38 16.84,65.38 C16.84,65.38 21.68,64.49 25.23,61.79 C29.5,58.55 35.62,53.05 41.28,50.54 C48.19,47.49 54.07,47.44 54.07,47.44 L43.62,17.53 C43.62,17.53 37.66,15.84 31.33,19.15 C25,22.46 21.69,25.77 16.9,28.13 C11.58,30.74 7.62,31.88 7.47,32.17 Z" fill="#FEFEFE"/>
  <path d="M82.92,17.82 C82.77,18.11 72.47,47.12 72.54,47.48 C72.61,47.85 79.02,48.29 84.76,53.07 C90.44,57.8 95.43,63.01 99.48,64.92 C103.53,66.83 106.69,67.05 106.69,67.05 C106.69,67.05 111.3,57.3 113.46,51.74 C116.04,45.12 120.38,36.5 120.45,36.14 C120.52,35.77 113.61,34.69 109.41,31.58 C104.85,28.19 103.37,24.73 95.28,20.47 C86.84,16.02 82.92,17.82 82.92,17.82 Z" fill="#FEFEFE"/>
  <path d="M101.91,31.22 C96.45,27.71 88.66,29.16 86.31,35.49 C83.96,41.82 86.46,47.78 92.2,51.02 C97.94,54.26 106.67,51.67 107.66,43.88 C108.32,38.65 106.84,34.38 101.91,31.22 Z" fill="#DB0D27"/>
  <path d="M25.88,29.01 C17.71,32.69 18.86,41.2 20.51,44.69 C22.42,48.74 27.25,52.46 35.53,49.25 C44.07,45.94 43.6,38 41.64,34.09 C39.27,29.38 33.98,25.36 25.88,29.01 Z" fill="#DB0D27"/>
</svg>
